www/assets/icons/mark_chat_read.svg

<svg xmlns="http://www.w3.org/2000/svg" width="24" height="24" viewBox="0 0 24 24" fill='currentColor'><path d="m16.84 20-3.54-3.54 1.41-1.41 2.12 2.12 4.24-4.24 1.43 1.41zm-5.34-3a6.995 6.995 0 0 1 10-6.32V4c0-1.1-.9-2-2-2h-16c-1.1 0-2 .9-2 2v18l4-4h6c0-.17.01-.33.03-.5a4 4 0 0 1-.03-.5"/></svg>

<svg width="24" height="24" viewBox="0 0 24 24" xmlns="http://www.w3.org/2000/svg" fill='currentColor'><path d="M16.84 20L13.3 16.46L14.71 15.05L16.83 17.17L21.07 12.93L22.5 14.34L16.84 20ZM11.5 17C11.5 13.13 14.63 10 18.5 10C19.58 10 20.59 10.25 21.5 10.68V4C21.5 2.9 20.6 2 19.5 2H3.5C2.4 2 1.5 2.9 1.5 4V22L5.5 18H11.5C11.5 17.83 11.51 17.67 11.53 17.5C11.51 17.34 11.5 17.17 11.5 17Z"/></svg>
